!!!!SEGMENT: pl-sa--360-a-vii-120_anonim--powiedzcie-pasterze-mili.krn
!!!cenid: 17xx:1718
!!!COM: Anonim
!!!COM-rismID: pe30004985
!!!CDT:
!!!CNT:
!!!OTL: Powiedzcie pasterze mili
!!!PDT:
!!!AGN: Sacred
!!!SMS-siglum: PL-SA
!!!SMS-shelfmark: 360/A VII 120
!!!SMS-shelfwork: W
!!!SMS-variant:
!!!SMS-altvar:
!!!NIFC-rismSourceID: 1001069973
!!!NIFC-islandoraID:
!!!URL-pdf-islandora:
!!!URL-scan: https://bc.bdsandomierz.pl/dlibra/publication/1664/edition/1632/content @EN{Scan in the Sandomierz Diocese Digital Library} @PL{Skany w portalu Cyfrowa Biblioteka Diecezjalna w Sandomierzu}
!!!ONB-nifc:
!!!AIN: 1 organ 2 soprn 2 violn
!!!key: C
**kern	**fba	**dynam	**kern	**dynam	**kern	**dynam	**kern	**text	**text	**kern	**text
*part5	*	*part5	*part4	*part4	*part3	*part3	*part2	*part2	*part2	*part1	*part1
*group3	*	*	*group2	*	*group2	*	*group1	*group1	*group1	*group1	*group1
*staff5	*	*	*staff4	*	*staff3	*	*staff2	*staff2	*staff2	*staff1	*staff1
*I"Fundamento.	*	*	*I"Violino 2do.	*	*I"Violino Primo.	*	*I"Canto 2do.	*	*	*I"Canto Primo	*
*I'b	*	*	*I'vl 2	*	*I'vl 1	*	*I'S 2	*	*	*I'S 1	*
*Iorgan	*	*	*Ivioln	*	*Ivioln	*	*Isoprn	*	*	*Isoprn	*
*ICklav	*	*	*ICstr	*	*ICstr	*	*ICvox	*	*	*ICvox	*
*IGcont	*	*	*	*	*	*	*	*	*	*	*
*clefF4	*	*	*clefG2	*	*clefG2	*	*clefC1	*	*	*clefC1	*
*k[]	*	*	*k[]	*	*k[]	*	*k[]	*	*	*k[]	*
*C:	*	*	*C:	*	*C:	*	*C:	*	*	*C:	*
*M2/4	*	*	*M2/4	*	*M2/4	*	*M2/4	*	*	*M2/4	*
=1	=1	=1	=1	=1	=1	=1	=1	=1	=1	=1	=1
!	!	!	!LO:TX:t=P:problem=4,8,16\left or right&colon; global	!	!LO:TX:t=P:problem=4,8,16\left or right&colon; global	!	!	!	!	!	!
!LO:TX:a:B:t=Moderato.	!	!	!LO:TX:a:B:t=Moderato.	!	!LO:TX:a:B:t=Moderato	!	!LO:TX:a:B:t=Moderato.	!	!	!LO:TX:a:B:t=Moderato.	!
!	!	!	!	!	!	!	!LO:N:vis=00	!	!	!LO:N:vis=00	!
2C/	.	.	4cc\	.	4cc\	.	0r	.	.	0r	.
.	.	.	8ee\L	.	8ee\L	.	.	.	.	.	.
.	.	.	8cc\J	.	8cc\J	.	.	.	.	.	.
=2	=2	=2	=2	=2	=2	=2	=2	=2	=2	=2	=2
2C/	.	.	4ee\	.	4gg\	.	.	.	.	.	.
.	.	.	4cc\	.	8ee\L	.	.	.	.	.	.
.	.	.	.	.	8cc\J	.	.	.	.	.	.
=3	=3	=3	=3	=3	=3	=3	=3	=3	=3	=3	=3
!LO:TX:t=P:problem=4 left or right&colon; global	!	!	!LO:TX:t=P:problem=mixed beam	!	!	!	!	!	!	!	!
4G\	7	.	8dd\L	.	(8ff\L	.	.	.	.	.	.
.	.	.	8f/	.	8dd\	.	.	.	.	.	.
4GG/	.	.	8e/	.	8cc\	.	.	.	.	.	.
.	.	.	8d/J	.	8b\J)	.	.	.	.	.	.
=4	=4	=4	=4	=4	=4	=4	=4	=4	=4	=4	=4
2C/	.	.	4.e/	.	4.cc\	.	.	.	.	.	.
.	.	.	16cc\LL	.	8gg\	.	.	.	.	.	.
.	.	.	16ee\JJ	.	.	.	.	.	.	.	.
=5	=5	=5	=5	=5	=5	=5	=5	=5	=5	=5	=5
!	!	!	!	!	!	!	!LO:TN:vis=00	!	!	!LO:N:vis=00	!
2C/	.	.	4cc\	.	4cc\	.	0r	.	.	0r	.
.	.	.	8ee\L	.	8ee\L	.	.	.	.	.	.
.	.	.	8cc\J	.	8cc\J	.	.	.	.	.	.
=6	=6	=6	=6	=6	=6	=6	=6	=6	=6	=6	=6
!	!	!	!LO:TUP:a	!	!LO:TUP:a	!	!	!	!	!	!
2C/	.	.	12gg\L	.	12gg\L	.	.	.	.	.	.
.	.	.	12ff#X\	.	12ff#X\	.	.	.	.	.	.
.	.	.	12gg\J	.	12gg\J	.	.	.	.	.	.
.	.	.	8ee\L	.	8ee\L	.	.	.	.	.	.
.	.	.	8cc\J	.	8cc\J	.	.	.	.	.	.
=7	=7	=7	=7	=7	=7	=7	=7	=7	=7	=7	=7
!	!	!	!LO:TUP:a	!	!LO:TUP:a	!	!	!	!	!	!
4G\	7	.	12dd\L	.	12ffn\L	.	.	.	.	.	.
.	.	.	12cc\	.	12ee\	.	.	.	.	.	.
.	.	.	12dd\J	.	12ff\J	.	.	.	.	.	.
4GG/	.	.	8b\L	.	8dd\L	.	.	.	.	.	.
.	.	.	8g\J	.	8b\J	.	.	.	.	.	.
=8	=8	=8	=8	=8	=8	=8	=8	=8	=8	=8	=8
2C/	.	.	4.e/	.	4.cc\	.	.	.	.	.	.
.	.	.	16cc\LL	.	8gg\	.	.	.	.	.	.
.	.	.	16ee\JJ	.	.	.	.	.	.	.	.
=9	=9	=9	=9	=9	=9	=9	=9	=9	=9	=9	=9
!	!	!	!	!	!LO:TUP:a:problem=klamra łukowa	!	!LO:N:vis=00	!	!	!LO:N:vis=00	!
4G\	.	.	4b\	.	12dd\L	.	0r	.	.	0r	.
.	.	.	.	.	12cc\	.	.	.	.	.	.
.	.	.	.	.	12dd\J	.	.	.	.	.	.
4r	.	.	8g/L	.	8b\L	.	.	.	.	.	.
.	.	.	8g/J	.	8g\J	.	.	.	.	.	.
=10	=10	=10	=10	=10	=10	=10	=10	=10	=10	=10	=10
4C/	.	.	4e/	.	4cc\	.	.	.	.	.	.
4r	.	.	8cc\L	.	8ee\L	.	.	.	.	.	.
.	.	.	8ee\J	.	8gg\J	.	.	.	.	.	.
=11	=11	=11	=11	=11	=11	=11	=11	=11	=11	=11	=11
!	!	!	!LO:TX:t=P:problem=mixed beam	!	!	!	!	!	!	!	!
4G\	7	.	8dd\L	.	8ff\L	.	.	.	.	.	.
.	.	.	8f/	.	8dd\	.	.	.	.	.	.
4GG/	.	.	8e/	.	8cc\	.	.	.	.	.	.
.	.	.	8d/J	.	8b\J	.	.	.	.	.	.
!	!	!	!LO:LB:g=original	!	!	!	!	!	!	!	!
=12	=12	=12	=12	=12	=12	=12	=12	=12	=12	=12	=12
2C/	.	.	4.e/	.	4.cc\	.	.	.	.	.	.
.	.	.	16cc\LL	.	8gg\	.	.	.	.	.	.
.	.	.	16ee\JJ	.	.	.	.	.	.	.	.
!	!	!	!	!	!LO:LB:g=original	!	!	!	!	!	!
=13	=13	=13	=13	=13	=13	=13	=13	=13	=13	=13	=13
!	!	!	!	!	!LO:TUP:a	!	!LO:N:vis=00	!	!	!LO:N:vis=00	!
4G\	.	.	4b\	.	12dd\L	.	0r	.	.	0r	.
.	.	.	.	.	12cc\	.	.	.	.	.	.
.	.	.	.	.	12dd\J	.	.	.	.	.	.
4r	.	.	8b\L	.	8b\L	.	.	.	.	.	.
.	.	.	8g\J	.	8g\J	.	.	.	.	.	.
=14	=14	=14	=14	=14	=14	=14	=14	=14	=14	=14	=14
2C/	.	.	4e/	.	4cc\	.	.	.	.	.	.
.	.	.	8cc\L	.	8ee\L	.	.	.	.	.	.
.	.	.	8ee\J	.	8gg\J	.	.	.	.	.	.
=15	=15	=15	=15	=15	=15	=15	=15	=15	=15	=15	=15
!	!	!	!LO:TUP:a:problem=klamra łukowa	!	!LO:TUP:a:problem=klamra łukowa	!	!	!	!	!	!
4G\	7	.	12cc\L	.	12ee\L	.	.	.	.	.	.
.	.	.	12b\	.	12dd\	.	.	.	.	.	.
.	.	.	12cc\J	.	12ee\J	.	.	.	.	.	.
4GG/	.	.	12f/L	.	12dd\L	.	.	.	.	.	.
.	.	.	12e/	.	12cc\	.	.	.	.	.	.
.	.	.	12f/J	.	12dd\J	.	.	.	.	.	.
!LO:LB:g=original	!	!	!	!	!	!	!	!	!	!	!
=16	=16	=16	=16	=16	=16	=16	=16	=16	=16	=16	=16
4C/	.	.	4e/	.	4cc\	.	.	.	.	.	.
!	!	!	!LO:TX:a:t=16	!	!LO:TX:a:t=16	!	!	!	!	!	!
4r	.	.	4r	.	4r	.	.	.	.	.	.
=17||;	=17||;	=17||	=17||;	=17||	=17||;	=17||	=17	=17||	=17||	=17	=17
!	!	!LO:DY:a:t=Pó.	!LO:N:vis=00	!	!LO:N:vis=00	!	!LO:TX:t=P:problem=4,8,16\left, middle or right&colon; global	!	!	!LO:TX:t=P:problem=4,8,16\left, middle or right&colon; global	!
4C/	.	p	0r	.	0r	.	4cc\	Po-	.	4cc\	Po-
4r	.	.	.	.	.	.	4cc\	-wiedz-	.	8ee\L	-wiedz-
.	.	.	.	.	.	.	.	.	.	8cc\J	.
=18	=18	=18	=18	=18	=18	=18	=18	=18	=18	=18	=18
2C/	.	.	.	.	.	.	4ee\	-cie	.	4gg\	-cie
.	.	.	.	.	.	.	4cc\	Pa-	.	8ee\L	Pa-
.	.	.	.	.	.	.	.	.	.	8cc\J	.
=19	=19	=19	=19	=19	=19	=19	=19	=19	=19	=19	=19
4G\	7	.	.	.	.	.	8dd\	-ste-	.	8ff\	-ste-
.	.	.	.	.	.	.	8b\	-rze	.	8dd\	-rze
4GG/	.	.	.	.	.	.	8g\L	mi-	.	8b\L	mi-
.	.	.	.	.	.	.	8f\J	.	.	8dd\J	.
=20	=20	=20	=20	=20	=20	=20	=20	=20	=20	=20	=20
2C/	.	.	.	.	.	.	4e/	-li	.	4cc\	-li
.	.	.	.	.	.	.	4r	.	.	4r	.
=21	=21	=21	=21	=21	=21	=21	=21	=21	=21	=21	=21
!	!	!	!	!	!	!	!LO:N:vis=00	!	!	!LO:N:vis=00	!
2C/	.	.	4cc\	.	4cc\	.	0r	.	.	0r	.
.	.	.	8ee\L	.	8ee\L	.	.	.	.	.	.
.	.	.	8cc\J	.	8cc\J	.	.	.	.	.	.
=22	=22	=22	=22	=22	=22	=22	=22	=22	=22	=22	=22
!	!	!	!LO:TUP:a	!	!LO:TUP:a	!	!	!	!	!	!
2C/	.	.	12gg\L	.	12gg\L	.	.	.	.	.	.
.	.	.	12ff#X\	.	12ff#X\	.	.	.	.	.	.
.	.	.	12gg\J	.	12gg\J	.	.	.	.	.	.
.	.	.	8ee\L	.	8ee\L	.	.	.	.	.	.
.	.	.	8cc\J	.	8cc\J	.	.	.	.	.	.
=23	=23	=23	=23	=23	=23	=23	=23	=23	=23	=23	=23
!	!	!	!LO:TX:t=P:problem=mixed beam	!	!	!	!	!	!	!	!
4G\	7	.	8dd\L	.	8ff\L	.	.	.	.	.	.
.	.	.	8f/	.	8dd\	.	.	.	.	.	.
4GG/	.	.	8e/	.	8cc\	.	.	.	.	.	.
.	.	.	8d/J	.	8b\J	.	.	.	.	.	.
=24	=24	=24	=24	=24	=24	=24	=24	=24	=24	=24	=24
2C/	.	.	4e/	.	4cc\	.	.	.	.	.	.
.	.	.	4r	.	4r	.	.	.	.	.	.
=25	=25	=25	=25	=25	=25	=25	=25	=25	=25	=25	=25
*	*	*	*2\right	*	*2\right	*	*	*	*	*	*
2C/	.	.	2ee\	.	[2gg\	.	4cc\	gdzies-	.	4cc\	gdzies-
.	.	.	.	.	.	.	4cc\	-cie	.	8ee\L	-cie
.	.	.	.	.	.	.	.	.	.	8cc\J	.
=26	=26	=26	=26	=26	=26	=26	=26	=26	=26	=26	=26
2C/	.	.	2ee\	.	2gg\]	.	4ee\	na	.	4gg\	na
.	.	.	.	.	.	.	4cc\	ten	.	4ee\	ten
=27	=27	=27	=27	=27	=27	=27	=27	=27	=27	=27	=27
4G\	7	.	2dd\	.	2ff\	.	8dd\	czaſ	.	8ff\	czas
.	.	.	.	.	.	.	8b\	cho-	.	8dd\	cho-
!	!	!	!	!	!	!	!	!	!	!LO:LB:g=original	!
4GG/	.	.	.	.	.	.	8g\L	-dzi-	.	8cc\L	-dzi-
.	.	.	.	.	.	.	8f\J	.	.	8b\J	.
!	!	!	!	!	!	!	!LO:LB:g=original	!	!	!	!
=28	=28	=28	=28	=28	=28	=28	=28	=28	=28	=28	=28
2C/	.	.	4cc\	.	4ee\	.	4e/	-li	.	4cc\	-li
.	.	.	4r	.	4r	.	4r	.	.	4r	.
!	!	!	!LO:LB:g=original	!	!	!	!	!	!	!	!
=29	=29	=29	=29	=29	=29	=29	=29	=29	=29	=29	=29
!	!	!	!LO:SIC:v:s=2b\	!	!	!	!	!	!	!	!
2C/	.	.	2cc\	.	2dd\	.	4b\	do	.	4dd\	do
.	.	.	.	.	.	.	4g\	Be-	.	8b\L	Be-
.	.	.	.	.	.	.	.	.	.	8g\J	.
=30	=30	=30	=30	=30	=30	=30	=30	=30	=30	=30	=30
4G\	.	.	4b\	.	4dd\	.	4b\	-tle-	.	4dd\	-tle-
4r	.	.	4dd\	.	4ff\	.	4dd\	-em	.	4ff\	-em
=31	=31	=31	=31	=31	=31	=31	=31	=31	=31	=31	=31
4G\	.	.	4cc\	.	4ee\	.	8cc\L	ſła-	.	8ee\L	sław-
.	.	.	.	.	.	.	8b\J	.	.	8dd\J	.
4GG/	.	.	8b\L	.	4dd\	.	8b\L	-wne-	.	8dd\L	-ne-
.	.	.	8g\J	.	.	.	8g\J	.	.	8cc\J	.
!LO:LB:g=original	!	!	!	!	!LO:LB:g=original	!	!	!	!	!	!
=32	=32	=32	=32	=32	=32	=32	=32	=32	=32	=32	=32
*	*	*	*	*	*	*	*2\right	*	*	*2\right	*
2C/	.	.	2e/	.	2cc\	.	2cc\	-go	.	2ee\	-go
=33	=33	=33	=33	=33	=33	=33	=33	=33	=33	=33	=33
4G\	.	.	2g/	.	2dd\	.	4b\	wi-	.	4dd\	wi-
4r	.	.	.	.	.	.	4b\	-tac	.	8b\L	-tac
.	.	.	.	.	.	.	.	.	.	8dd\J	.
=34	=34	=34	=34	=34	=34	=34	=34	=34	=34	=34	=34
4G\	.	.	4b\	.	4dd\	.	4b\	na-	.	4dd\	na-
4r	.	.	4dd\	.	4ff\	.	4dd\	-ro-	.	4ff\	-ro-
=35	=35	=35	=35	=35	=35	=35	=35	=35	=35	=35	=35
!	!	!	!LO:TX:t=P:problem=mixed beam	!	!	!	!	!	!	!	!
4G\	.	.	8cc\L	.	(8ee\L	.	8cc\L	-dzo-	.	8ee\L	-dzo-
.	.	.	8f/	.	8dd\	.	8b\J	.	.	8dd\J	.
4GG/	.	.	8f/	.	8dd\	.	8g\L	-ne-	.	8dd\L	-ne-
.	.	.	8e/J	.	8cc\J)	.	8f\J	.	.	8cc\J	.
=36	=36	=36	=36	=36	=36	=36	=36	=36	=36	=36	=36
!	!	!	!	!	!	!LO:DY:a:t=f.	!	!	!	!	!
2C/	.	.	2e/	.	2cc\	f	2e/	-go	.	2cc\	-go
!	!	!	!	!	!	!	!	!	!	!LO:LB:g=original	!
=37	=37	=37	=37	=37	=37	=37	=37	=37	=37	=37	=37
!	!	!	!LO:TX:t=P:problem=mixed beam	!	!	!	!LO:N:vis=00	!	!	!LO:N:vis=00	!
2C/	.	.	8e/L	.	(8cc\L	.	0r	.	.	0r	.
.	.	.	8cc\	.	8ee\	.	.	.	.	.	.
.	.	.	8cc\	.	8ee\	.	.	.	.	.	.
.	.	.	8cc\J	.	8ff#X\J)	.	.	.	.	.	.
=38	=38	=38	=38	=38	=38	=38	=38	=38	=38	=38	=38
2C/	.	.	4ee\	.	4gg\	.	.	.	.	.	.
.	.	.	8cc\L	.	8ee\L	.	.	.	.	.	.
.	.	.	8cc\J	.	8cc\J	.	.	.	.	.	.
=39	=39	=39	=39	=39	=39	=39	=39	=39	=39	=39	=39
2C/	.	.	4ee\	.	4gg\	.	.	.	.	.	.
.	.	.	8cc\L	.	8ee\L	.	.	.	.	.	.
.	.	.	8cc\J	.	8cc\J	.	.	.	.	.	.
=40	=40	=40	=40	=40	=40	=40	=40	=40	=40	=40	=40
2C/	.	.	4ee\	.	4ccc\	.	.	.	.	.	.
.	.	.	4ff\	.	4aa\	.	.	.	.	.	.
=41	=41	=41	=41	=41	=41	=41	=41	=41	=41	=41	=41
!	!	!	!	!	!	!	!LO:N:vis=00	!	!	!LO:N:vis=00	!
2C/	.	.	2ee\	.	2gg\	.	0r	.	.	0r	.
=42	=42	=42	=42	=42	=42	=42	=42	=42	=42	=42	=42
2C/	.	.	8ee\L	.	(8cc\L	.	.	.	.	.	.
.	.	.	8cc\	.	8ee\	.	.	.	.	.	.
.	.	.	8cc\	.	8ee\	.	.	.	.	.	.
.	.	.	8cc\J	.	8ff#X\J)	.	.	.	.	.	.
!	!	!	!LO:LB:g=original	!	!	!	!	!	!	!	!
=43	=43	=43	=43	=43	=43	=43	=43	=43	=43	=43	=43
2C/	.	.	4ee\	.	4gg\	.	.	.	.	.	.
!	!	!	!LO:TX:t=P:problem=mixed beam	!	!	!	!	!	!	!	!
.	.	.	8cc\L	.	8ee\L	.	.	.	.	.	.
.	.	.	8e/J	.	8cc\J	.	.	.	.	.	.
=44	=44	=44	=44	=44	=44	=44	=44	=44	=44	=44	=44
!	!	!	!	!	!LO:TUP:a	!	!	!	!	!	!
4G\	7	.	4dd\	.	12ff\L	.	.	.	.	.	.
.	.	.	.	.	12ee\	.	.	.	.	.	.
.	.	.	.	.	12ff\J	.	.	.	.	.	.
4GG/	.	.	8b/L	.	8dd\L	.	.	.	.	.	.
.	.	.	8g/J	.	8b\J	.	.	.	.	.	.
=45	=45	=45	=45	=45	=45	=45	=45	=45	=45	=45	=45
2C/	.	.	2e/	.	2cc\	.	2r	.	.	2r	.
=46	=46	=46	=46	=46	=46	=46	=46	=46	=46	=46	=46
*2\right	*	*	*	*	*	*	*	*	*	*	*
2G\	.	.	8g/L	.	8b\L	.	8b\L	z_Pan-	.	8dd\L	z_Pan-
.	.	.	8a/	.	8cc\	.	8cc\J	.	.	8ee\J	.
!	!	!	!	!	!	!	!LO:LB:g=original	!	!	!	!
.	.	.	8b/	.	8dd\	.	8dd\L	-ny	.	8ff\L	-ny
.	.	.	8a/J	.	8cc\J	.	8cc\J	.	.	8ee\J	.
!LO:TX:a:t=30	!	!	!LO:TX:a:t=30	!	!LO:TX:a:t=30	!	!	!	!	!	!
=47	=47	=47	=47	=47	=47	=47	=47	=47	=47	=47	=47
2G\	.	.	8b\L	.	8dd\L	.	8dd\L	czy-	.	8ff\L	czy-
.	.	.	8a\J	.	8cc\J	.	8cc\J	.	.	8ee\J	.
.	.	.	4g/	.	4b\	.	4b\	-stej	.	4dd\	-stey
!	!	!	!	!	!LO:LB:g=original	!	!	!	!	!	!
=48	=48	=48	=48	=48	=48	=48	=48	=48	=48	=48	=48
2G\	.	.	8g/L	.	8b\L	.	8b\	Meſ-	.	8dd\	Meſ-
.	.	.	8g/	.	8g\	.	8b\	-sy-	.	8b\	-sy-
.	.	.	8e/	.	8cc\	.	8cc\L	-a-	.	8cc\L	-a-
.	.	.	8b/J	.	8dd\J	.	8b\J	.	.	8dd\J	.
=49	=49	=49	=49	=49	=49	=49	=49	=49	=49	=49	=49
2C/	.	.	2cc\	.	2ee\	.	2cc\	-sza	.	2ee\	-sza
!LO:LB:g=original	!	!	!	!	!	!	!	!	!	!	!
=50	=50	=50	=50	=50	=50	=50	=50	=50	=50	=50	=50
4C/	.	.	4e/	.	4cc\	.	4cc\	zkąd	.	4ee\	tu
4r	.	.	4e/	.	4cc\	.	4cc\	po-	.	4ee\	po-
=51	=51	=51	=51	=51	=51	=51	=51	=51	=51	=51	=51
4G\	.	.	4b\	.	4dd\	.	4dd\	-cie-	.	4ff\	-cie-
4r	.	.	8g/L	.	8b\L	.	4b\	-cha	.	8dd\L	-cha
.	.	.	8e/J	.	8g\J	.	.	.	.	8b\J	.
=52	=52	=52	=52	=52	=52	=52	=52	=52	=52	=52	=52
4G\	.	.	4e/	.	4cc\	.	8cc\	ro-	.	8ee\	ro-
.	.	.	.	.	.	.	8cc\	-snie	.	8cc\	-snie
4GG/	.	.	4f/	.	4dd\	.	4b\	na-	.	8b\L	na-
.	.	.	.	.	.	.	.	.	.	8dd\J	.
!	!	!	!	!	!	!	!	!	!	!LO:LB:g=original	!
=53	=53	=53	=53	=53	=53	=53	=53	=53	=53	=53	=53
!	!	!	!LO:SIC:v:s=4e/	!	!	!	!	!	!	!	!
4C/	.	.	4f/	.	4cc\	.	4cc\	-sza	.	4cc\	-sza
4r	.	.	4r	.	4r	.	4r	.	.	4r	.
!	!	!	!	!	!	!	!LO:LB:g=original	!	!	!	!
=54	=54	=54	=54	=54	=54	=54	=54	=54	=54	=54	=54
2C/	.	.	2ee\	.	2gg\	.	8ee\	u-	.	8ee\	u-
.	.	.	.	.	.	.	8ff#X\	-bo-	.	8ff#X\	-bo-
.	.	.	.	.	.	.	4gg\	-gich	.	4gg\	-gich
=55	=55	=55	=55	=55	=55	=55	=55	=55	=55	=55	=55
2C/	.	.	2ee\	.	2gg\	.	8ee\	Pa-	.	8ee\	Pa-
.	.	.	.	.	.	.	8ff#X\	-stuſz-	.	8ff#X\	-stuſz-
.	.	.	.	.	.	.	8gg\L	-kow	.	8gg\L	-kow
.	.	.	.	.	.	.	8ff#X\J	.	.	8ff#X\J	.
!	!	!	!LO:LB:g=original	!	!	!	!	!	!	!	!
=56	=56	=56	=56	=56	=56	=56	=56	=56	=56	=56	=56
2C/	.	.	4ee\	.	2gg\	.	4gg\	na	.	4gg\	na
.	.	.	8ee\L	.	.	.	8ee\L	zie-	.	8ee\L	zie-
.	.	.	8dd\J	.	.	.	8dd\J	.	.	8dd\J	.
=57	=57	=57	=57	=57	=57	=57	=57	=57	=57	=57	=57
2C/	.	.	2ee\	.	2gg\	.	2cc\	-mi	.	2cc\	-mi
=58	=58	=58	=58	=58	=58	=58	=58	=58	=58	=58	=58
2C/	.	.	2ee\	.	2gg\	.	8ee\	gdy	.	8ee\	gdy
.	.	.	.	.	.	.	8ff#X\	Bo-	.	8ff#X\	Bo-
.	.	.	.	.	.	.	4gg\	-ga	.	4gg\	-ga
=59	=59	=59	=59	=59	=59	=59	=59	=59	=59	=59	=59
2C/	.	.	2ee\	.	2gg\	.	8ee\	na	.	8ee\	na
.	.	.	.	.	.	.	8ff#X\	o-	.	8ff#X\	o-
!	!	!	!	!	!	!	!	!	!	!LO:LB:g=original	!
.	.	.	.	.	.	.	8gg\L	-ko	.	8gg\L	-ko
.	.	.	.	.	.	.	8ff#X\J	.	.	8ff#X\J	.
!	!	!	!	!	!	!	!LO:LB:g=original	!	!	!	!
=60	=60	=60	=60	=60	=60	=60	=60	=60	=60	=60	=60
2C/	.	.	2ee\	.	2gg\	.	4gg\	wi-	.	4gg\	wi-
.	.	.	.	.	.	.	8ee\L	-dzie-	.	8ee\L	-dzie-
.	.	.	.	.	.	.	8dd\J	.	.	8dd\J	.
=61	=61	=61	=61	=61	=61	=61	=61	=61	=61	=61	=61
2C/	.	.	2ee\	.	2gg\	.	2cc\	-my	.	2cc\	-my
=62	=62	=62	=62	=62	=62	=62	=62	=62	=62	=62	=62
!	!	!	!	!LO:DY:a:t=for	!	!	!LO:N:vis=00	!	!	!LO:N:vis=00	!
2GG/	.	.	4g/	f	4g/	.	0r	.	.	0r	.
.	.	.	8b\L	.	8b/L	.	.	.	.	.	.
.	.	.	8g\J	.	8g/J	.	.	.	.	.	.
=63	=63	=63	=63	=63	=63	=63	=63	=63	=63	=63	=63
2GG/	.	.	8b\L	.	8b\L	.	.	.	.	.	.
.	.	.	8cc#X\J	.	8cc#X\J	.	.	.	.	.	.
.	.	.	4dd\	.	4dd\	.	.	.	.	.	.
=64	=64	=64	=64	=64	=64	=64	=64	=64	=64	=64	=64
!	!	!	!LO:TUP:a:problem=klamra łukowa	!	!	!	!	!	!	!	!
2GG/	.	.	12dd\L	.	8dd\L	.	.	.	.	.	.
.	.	.	12cc#X\	.	.	.	.	.	.	.	.
.	.	.	.	.	8dd\	.	.	.	.	.	.
.	.	.	12dd\J	.	.	.	.	.	.	.	.
.	.	.	8b\L	.	8b\	.	.	.	.	.	.
.	.	.	8a\J	.	8a\J	.	.	.	.	.	.
=65	=65	=65	=65	=65	=65	=65	=65	=65	=65	=65	=65
2GG/	.	.	2g/	.	2g/	.	.	.	.	.	.
!	!	!	!	!	!LO:LB:g=original	!	!	!	!	!	!
=66	=66	=66	=66	=66	=66	=66	=66	=66	=66	=66	=66
!	!	!	!	!LO:DY:a:t=Pó	!	!	!LO:N:vis=00	!	!	!LO:N:vis=00	!
2GG/	.	.	4g/	p	4g/	.	0r	.	.	0r	.
.	.	.	8b/L	.	8b/L	.	.	.	.	.	.
.	.	.	8g/J	.	8g/J	.	.	.	.	.	.
=67	=67	=67	=67	=67	=67	=67	=67	=67	=67	=67	=67
2GG/	.	.	8b\L	.	8b\L	.	.	.	.	.	.
.	.	.	8cc#X\J	.	8cc#X\J	.	.	.	.	.	.
.	.	.	4dd\	.	4dd\	.	.	.	.	.	.
!LO:LB:g=original	!	!	!LO:LB:g=original	!	!	!	!	!	!	!	!
=68	=68	=68	=68	=68	=68	=68	=68	=68	=68	=68	=68
!	!	!	!LO:TUP:a	!	!	!	!	!	!	!	!
2GG/	.	.	12dd\L	.	8dd\L	.	.	.	.	.	.
.	.	.	12cc#X\	.	.	.	.	.	.	.	.
.	.	.	.	.	8dd\	.	.	.	.	.	.
.	.	.	12dd\J	.	.	.	.	.	.	.	.
.	.	.	8b\L	.	8b\	.	.	.	.	.	.
.	.	.	8a\J	.	8a\J	.	.	.	.	.	.
=69	=69	=69	=69	=69	=69	=69	=69	=69	=69	=69	=69
2GG/	.	.	2g/	.	2g/	.	.	.	.	.	.
=70	=70	=70	=70	=70	=70	=70	=70	=70	=70	=70	=70
!	!	!	!	!	!	!	!LO:N:vis=00	!	!	!LO:N:vis=00	!
4C/	.	.	8ee\L	.	8ee\L	.	0r	.	.	0r	.
.	.	.	8ff#X\	.	8ff#X\	.	.	.	.	.	.
4r	.	.	8gg\	.	8gg\	.	.	.	.	.	.
.	.	.	8ff#\J	.	8ff#\J	.	.	.	.	.	.
=71	=71	=71	=71	=71	=71	=71	=71	=71	=71	=71	=71
4C/	.	.	8gg\L	.	8gg\L	.	.	.	.	.	.
.	.	.	8cc\J	.	8ee\	.	.	.	.	.	.
4r	.	.	8b\L	.	8dd\	.	.	.	.	.	.
.	.	.	8a\J	.	8cc\J	.	.	.	.	.	.
=72	=72	=72	=72	=72	=72	=72	=72	=72	=72	=72	=72
4D\	#	.	4g/	.	4b\	.	.	.	.	.	.
4DD/	.	.	8f#X/L	.	4a\	.	.	.	.	.	.
.	.	.	8d/J	.	.	.	.	.	.	.	.
=73	=73	=73	=73	=73	=73	=73	=73	=73	=73	=73	=73
4GG/	.	.	4B/	.	2g/	.	.	.	.	.	.
4r	.	.	4r	.	.	.	.	.	.	.	.
=74	=74	=74	=74	=74	=74	=74	=74	=74	=74	=74	=74
!	!	!	!LO:N:vis=00	!	!LO:N:vis=00	!	!	!	!	!	!
2GG/	.	.	0r	.	0r	.	4g\	y	.	4g\	y
.	.	.	.	.	.	.	4g\	my	.	8b\L	my
.	.	.	.	.	.	.	.	.	.	8g\J	.
=75	=75	=75	=75	=75	=75	=75	=75	=75	=75	=75	=75
2GG/	.	.	.	.	.	.	4g\	bys-	.	8b\L	bys-
.	.	.	.	.	.	.	.	.	.	8cc#X\J	.
.	.	.	.	.	.	.	4b\	-my	.	4dd\	-my
=76	=76	=76	=76	=76	=76	=76	=76	=76	=76	=76	=76
2GG/	.	.	.	.	.	.	8b\	tam	.	8dd\	tam
.	.	.	.	.	.	.	8b\	bie-	.	8dd\	bie-
.	.	.	.	.	.	.	8g\L	-ze-	.	8b\L	-ze-
.	.	.	.	.	.	.	8f#X\J	.	.	8a\J	.
=77	=77	=77	=77	=77	=77	=77	=77	=77	=77	=77	=77
2GG/	.	.	.	.	.	.	2g\	-li	.	2g\	-li
!	!	!	!LO:TX:a:t=30	!	!LO:PB:g=original	!	!	!	!	!	!
!	!	!	!LO:PB:g=original	!	!	!	!	!	!	!	!
=78	=78	=78	=78	=78	=78	=78	=78	=78	=78	=78	=78
!	!	!	!	!	!	!LO:DY:a:t=for.	!LO:N:vis=00	!	!	!LO:N:vis=00	!
2G\	.	.	4g/	.	4g/	f	0r	.	.	0r	.
.	.	.	8b\L	.	8b/L	.	.	.	.	.	.
.	.	.	8g\J	.	8g/J	.	.	.	.	.	.
=79	=79	=79	=79	=79	=79	=79	=79	=79	=79	=79	=79
2G\	.	.	8b\L	.	8b\L	.	.	.	.	.	.
.	.	.	8cc#X\J	.	8cc#X\J	.	.	.	.	.	.
.	.	.	8dd\L	.	8dd\L	.	.	.	.	.	.
.	.	.	8cc#X\J	.	8cc#X\J	.	.	.	.	.	.
=80	=80	=80	=80	=80	=80	=80	=80	=80	=80	=80	=80
2G\	.	.	4dd\	.	4dd\	.	.	.	.	.	.
!	!	!	!LO:TX:t=P:problem=mixed beam	!	!LO:TX:t=P:problem=mixed beam	!	!	!	!	!	!
.	.	.	8b\L	.	8b\L	.	.	.	.	.	.
.	.	.	8f#X/J	.	8f#X/J	.	.	.	.	.	.
=81	=81	=81	=81	=81	=81	=81	=81	=81	=81	=81	=81
2G\	.	.	2g/	.	2g/	.	.	.	.	.	.
=82	=82	=82	=82	=82	=82	=82	=82	=82	=82	=82	=82
!	!	!	!	!LO:DY:a:t=Pó	!	!LO:DY:a:t=Pó.	!	!	!	!	!
2G\	.	.	4g/	p	4g/	p	4g\	gdy-	.	4g\	gdy-
.	.	.	8b/L	.	8b\L	.	4g\	-bys-	.	8b\L	-bys-
.	.	.	8g/J	.	8g\J	.	.	.	.	8g\J	.
!	!	!	!	!	!	!	!LO:LB:g=original	!	!	!LO:LB:g=original	!
=83	=83	=83	=83	=83	=83	=83	=83	=83	=83	=83	=83
2G\	.	.	(8b\L	.	(8b\L	.	4g\	-my	.	8b\L	-my
.	.	.	8cc#X\	.	8cc#X\J	.	.	.	.	8cc#X\J	.
.	.	.	8dd\	.	8dd\L	.	4b\	dro-	.	4dd\	dro-
.	.	.	8cc#\J)	.	8cc#\J)	.	.	.	.	.	.
=84	=84	=84	=84	=84	=84	=84	=84	=84	=84	=84	=84
2GG/	.	.	4dd\	.	4dd\	.	8b\	-gę	.	8dd\	-gę
.	.	.	.	.	.	.	8b\	wie-	.	8dd\	wie-
!	!	!	!	!	!LO:TX:t=P:problem=mixed beam	!	!	!	!	!	!
.	.	.	8b\L	.	8b\L	.	8g\L	-dzie-	.	8b\L	-dzie-
.	.	.	8f#X\J	.	8f#X/J	.	8f#X\J	.	.	8f#X\J	.
=85	=85	=85	=85	=85	=85	=85	=85	=85	=85	=85	=85
4GG/	.	.	4g/	.	4g/	.	4g\	-li	.	4g\	-li
4r	.	.	4r	.	4r	.	4r	.	.	4r	.
!LO:LB:g=original	!	!	!	!	!	!	!	!	!	!	!
=86	=86	=86	=86	=86	=86	=86	=86	=86	=86	=86	=86
!	!	!	!	!	!	!	!LO:N:vis=00	!	!	!	!
4C|\	.	.	4cc|\	.	4cc\	.	0r	.	.	4cc\	podz-
8E|\L	.	.	8ee|\L	.	8ee|\L	.	.	.	.	8ee\L	-cie
8D|\J	.	.	8dd|\J	.	8dd|\J	.	.	.	.	8dd\J	.
!	!	!	!	!	!LO:LB:g=original	!	!	!	!	!	!
=87	=87	=87	=87	=87	=87	=87	=87	=87	=87	=87	=87
8C|>/L	.	.	8cc|\L	.	8cc|\L	.	.	.	.	8cc\L	po-
8BB|>/	.	.	8b|\	.	8b|\	.	.	.	.	8b\J	.
8AA|>/	.	.	8a|\	.	8a|\	.	.	.	.	8a\L	-ka-
8GG|>/J	.	.	8g|\J	.	8g|\J	.	.	.	.	8g\J	.
!	!	!	!LO:LB:g=original	!	!	!	!	!	!	!	!
=88	=88	=88	=88	=88	=88	=88	=88	=88	=88	=88	=88
4F\	.	.	4f/	.	4a\	.	.	.	.	4a\	-ze-
4D\	6	.	4d/	.	4b\	.	.	.	.	4b\	-my
=89	=89	=89	=89	=89	=89	=89	=89	=89	=89	=89	=89
2C/	.	.	2e/	.	2cc\	.	.	.	.	2cc\	wam
=90	=90	=90	=90	=90	=90	=90	=90	=90	=90	=90	=90
!	!	!	!	!	!	!	!LO:N:vis=00	!	!	!	!
4C|>/	.	.	4cc|\	.	4cc\	.	0r	.	.	4cc\	tyl-
8E|\L	.	.	8ee|\L	.	8ee|\L	.	.	.	.	8ee\L	-ko
8D|\J	.	.	8dd|\J	.	8dd|\J	.	.	.	.	8dd\J	.
!	!	!	!	!	!	!	!	!	!	!LO:LB:g=original	!
=91	=91	=91	=91	=91	=91	=91	=91	=91	=91	=91	=91
8C|>/L	.	.	8cc|\L	.	8cc|\L	.	.	.	.	8cc\L	chcey-
8BB|>/	.	.	8b|\	.	8b|\	.	.	.	.	8b\J	.
8AA|>/	.	.	8a|\	.	8a|\	.	.	.	.	8a\L	-cie
8GG|>/J	.	.	8g|\J	.	8g|\J	.	.	.	.	8g\J	.
=92	=92	=92	=92	=92	=92	=92	=92	=92	=92	=92	=92
4F\	.	.	4f/	.	4a\	.	.	.	.	4a\	wie-
4D\	6	.	4d/	.	4b\	.	.	.	.	4b\	-rzyc
=93	=93	=93	=93	=93	=93	=93	=93	=93	=93	=93	=93
4C/	.	.	2e/	.	2cc\	.	.	.	.	4cc\	nam
4r	.	.	.	.	.	.	.	.	.	4r	.
=94	=94	=94	=94	=94	=94	=94	=94	=94	=94	=94	=94
!	!	!	!	!	!	!LO:DY:a:t=Po.	!	!	!	!	!
4C/	.	.	4cc\	.	4ee\	p	4cc\	do	.	4ee\	do
4r	.	.	8b\L	.	8dd\L	.	8b\L	Be-	.	8dd\L	Be-
.	.	.	8cc\J	.	8ee\J	.	8cc\J	.	.	8ee\J	.
=95	=95	=95	=95	=95	=95	=95	=95	=95	=95	=95	=95
4G\	.	.	4dd\	.	4ff\	.	4dd\	-tle-	.	4ff\	-tle-
4r	.	.	8cc\L	.	8ee\L	.	8cc\L	-em	.	8ee\L	-em
.	.	.	8b\J	.	8dd\J	.	8b\J	.	.	8dd\J	.
=96	=96	=96	=96	=96	=96	=96	=96	=96	=96	=96	=96
4C/	.	.	4cc\	.	4ee\	.	4cc\	[[ſła-	pro-	4ee\	pro-
4r	.	.	8b\L	.	8dd\L	.	8b\L	-wne-	-sto	8dd\L	-sto
.	.	.	8g\J	.	8cc\J	.	8g\J	.	.	8cc\J	.
=97	=97	=97	=97	=97	=97	=97	=97	=97	=97	=97	=97
4G\	.	.	8d/L	.	8b\L	.	4f/	-go]]	bieſz-	8b\L	bieſz-
.	.	.	8f/J	.	8dd\J	.	.	.	.	8dd\J	.
4C/	.	.	4e/	.	4cc\	.	4e/	.	-cie	4cc\	-cie
!LO:PB:g=original	!	!	!	!	!	!	!	!	!	!	!
=98	=98	=98	=98	=98	=98	=98	=98	=98	=98	=98	=98
!	!	!	!	!	!	!LO:DY:a:t=for.	!LO:TX:a:t=4	!	!	!LO:N:vis=00	!
!	!	!	!	!	!	!	!LO:N:vis=00	!	!	!	!
4C/	.	.	4cc\	.	4ee\	f	0r	.	.	0r	.
4r	.	.	8b\L	.	8dd\L	.	.	.	.	.	.
.	.	.	8cc\J	.	8ee\J	.	.	.	.	.	.
!	!	!	!	!	!LO:LB:g=original	!	!	!	!	!	!
=99	=99	=99	=99	=99	=99	=99	=99	=99	=99	=99	=99
4G\	.	.	4dd\	.	4ff\	.	.	.	.	.	.
4r	.	.	8cc\L	.	8ee\L	.	.	.	.	.	.
.	.	.	8b\J	.	8dd\J	.	.	.	.	.	.
!	!	!	!LO:LB:g=original	!	!	!	!	!	!	!	!
=100	=100	=100	=100	=100	=100	=100	=100	=100	=100	=100	=100
4C/	.	.	4cc\	.	4ee\	.	.	.	.	.	.
4r	.	.	8b\L	.	8dd\L	.	.	.	.	.	.
.	.	.	8g\J	.	8cc\J	.	.	.	.	.	.
=101	=101	=101	=101	=101	=101	=101	=101	=101	=101	=101	=101
4G\	.	.	8d/L	.	8b\L	.	.	.	.	.	.
.	.	.	8f/J	.	8dd\J	.	.	.	.	.	.
!	!	!	!LO:SIC:v:s=4e/	!	!	!	!	!	!	!	!
4C\	.	.	4d/	.	4cc\	.	.	.	.	.	.
!	!	!	!	!	!	!	!LO:PB:g=original	!	!	!LO:PB:g=original	!
=102	=102	=102	=102	=102	=102	=102	=102	=102	=102	=102	=102
!	!	!	!	!LO:DY:a:t=Pó.	!	!LO:DY:a:t=Pó.	!	!	!	!	!
4C/	.	.	4cc\	p	4ee\	p	4cc\	a	.	4ee\	a-
4r	.	.	8b\L	.	8dd\L	.	8b\L	le	.	8dd\L	-le
.	.	.	8cc\J	.	8ee\J	.	8cc\J	.	.	8ee\J	.
=103	=103	=103	=103	=103	=103	=103	=103	=103	=103	=103	=103
4G\	.	.	4dd\	.	4ff\	.	4dd\	ſer-	.	4ff\	ſer-
4r	.	.	8cc\L	.	8ee\L	.	8cc\L	-ce	.	8ee\L	-ce
.	.	.	8b\J	.	8dd\J	.	8b\J	.	.	8dd\J	.
=104	=104	=104	=104	=104	=104	=104	=104	=104	=104	=104	=104
4C/	.	.	4cc\	.	4ee\	.	4cc\	czy-	.	4ee\	czy-
4r	.	.	8b\L	.	8dd\L	.	8b\L	-ste	.	8dd\L	-ste
.	.	.	8g\J	.	8cc\J	.	8g\J	.	.	8cc\J	.
=105	=105	=105	=105	=105	=105	=105	=105	=105	=105	=105	=105
4G\	.	.	8d/L	.	8b\L	.	8d/L	nies-	.	8b\L	nies-
.	.	.	8f/J	.	8dd\J	.	8f/J	.	.	8dd\J	.
4C/	.	.	4e/	.	4cc\	.	4e/	-cie	.	4cc\	-cie
=106	=106	=106	=106	=106	=106	=106	=106	=106	=106	=106	=106
2G\	.	.	4g/	.	4b\	.	8g\	bo	.	8b\	bo
.	.	.	.	.	.	.	8a\	ten	.	8cc\	ten
.	.	.	4r	.	4r	.	4b\	Pan	.	4dd\	Pan
!	!	!	!LO:TX:a:t=30	!	!LO:TX:a:t=30	!	!	!	!	!	!
=107	=107	=107	=107	=107	=107	=107	=107	=107	=107	=107	=107
!LO:TX:t=P:problem=brak taktu nr 107	!	!	!	!	!	!	!	!	!	!	!
2ryy	.	.	4g/	.	4b\	.	8g\	czy-	.	8b\	czy-
.	.	.	.	.	.	.	8a\	-sty	.	8cc\	-sty
.	.	.	4r	.	4r	.	4b\	sam	.	4dd\	sam
!	!	!	!	!	!	!	!LO:LB:g=original	!	!	!	!
=108	=108	=108	=108	=108	=108	=108	=108	=108	=108	=108	=108
4G\	.	.	8dd\L	.	8ff\L	.	8dd\L	ta-	.	8ff\L	ta-
.	.	.	8b\J	.	8dd\	.	8b\J	.	.	8dd\J	.
4GG/	.	.	8e/L	.	8cc\	.	8e/L	-ko-	.	8cc\L	-ko-
.	.	.	8d/J	.	8b\J	.	8d/J	.	.	8b\J	.
!	!	!	!	!	!	!	!	!	!	!LO:LB:g=original	!
=109	=109	=109	=109	=109	=109	=109	=109	=109	=109	=109	=109
4C/	.	.	2e/	.	2cc\	.	4e/	-wych	.	4cc\	-wych
4r	.	.	.	.	.	.	4r	.	.	4r	.
!	!	!	!	!	!LO:LB:g=original	!	!	!	!	!	!
=110	=110	=110	=110	=110	=110	=110	=110	=110	=110	=110	=110
2G\	.	.	4g/	.	4b\	.	8g\	ſza-	.	8b\	ſza-
.	.	.	.	.	.	.	8a\	-nu-	.	8cc\	-nu-
.	.	.	4r	.	4r	.	4b\	-ie	.	4dd\	-ie
!	!	!	!LO:LB:g=original	!	!	!	!	!	!	!	!
=111	=111	=111	=111	=111	=111	=111	=111	=111	=111	=111	=111
2G\	.	.	4g/	.	4b\	.	8g\	przy-	.	8b\	przy-
.	.	.	.	.	.	.	8a\	-mu-	.	8cc\	-mu-
.	.	.	4r	.	4r	.	4b\	-ie	.	4dd\	-ie
=112	=112	=112	=112	=112	=112	=112	=112	=112	=112	=112	=112
4G\	.	.	8dd\L	.	8ff\L	.	8dd\L	sług	.	8ff\L	ſług
.	.	.	8b\J	.	8dd\	.	8b\J	.	.	8dd\J	.
4GG/	.	.	8e/L	.	8cc\	.	8ee\L	no-	.	8cc\L	no-
.	.	.	8d/J	.	8b\J	.	8dd\J	.	.	8b\J	.
!LO:LB:g=original	!	!	!	!	!	!	!	!	!	!	!
=113	=113	=113	=113	=113	=113	=113	=113	=113	=113	=113	=113
4C/	.	.	4e/	.	4cc\	.	4ee\	-wych	.	4cc\	-wych
4r	.	.	4r	.	4r	.	4r	.	.	4r	.
!	!	!	!	!	!	!	!LO:LB:g=original	!	!	!	!
=114	=114	=114	=114	=114	=114	=114	=114	=114	=114	=114	=114
2G\	.	.	4g/	.	4b\	.	8g\	bo	.	8b\	bo
.	.	.	.	.	.	.	8a\	ten	.	8cc\	ten
.	.	.	4r	.	4r	.	4b\	Pan	.	4dd\	Pan
=115	=115	=115	=115	=115	=115	=115	=115	=115	=115	=115	=115
2G\	.	.	4g/	.	4b\	.	8g\	czy-	.	8b\	czy-
.	.	.	.	.	.	.	8a\	-sty	.	8cc\	-sty
.	.	.	4r	.	4r	.	4b\	sam	.	4dd\	sam
!	!	!	!	!	!	!	!	!	!	!LO:LB:g=original	!
=116	=116	=116	=116	=116	=116	=116	=116	=116	=116	=116-	=116
4G\	.	.	8dd\L	.	8ff\L	.	8dd\L	ta-	.	8ff\L	ta-
.	.	.	8b\J	.	8dd\	.	8b\J	.	.	8dd\J	.
4GG/	.	.	8e/L	.	8cc\	.	8ee\L	-ko-	.	8cc\L	-ko-
.	.	.	8d/J	.	8b\J	.	8dd\J	.	.	8b\J	.
=117	=117	=117	=117	=117	=117	=117	=117	=117	=117	=117	=117
4C/	.	.	2e/	.	2cc\	.	4ee\	-wych	.	4cc\	-wych
4r	.	.	.	.	.	.	4r	.	.	4r	.
=118	=118	=118	=118	=118	=118	=118	=118	=118	=118	=118	=118
2G\	.	.	4g/	.	4b\	.	8g\	ſza-	.	8b\	ſza-
.	.	.	.	.	.	.	8a\	-nu-	.	8cc\	-nu-
.	.	.	4r	.	4r	.	4b\	-ie	.	4dd\	-ie
=119	=119	=119	=119	=119	=119	=119	=119	=119	=119	=119	=119
2G\	.	.	4g/	.	4b\	.	8g\	przy-	.	8b\	przy-
.	.	.	.	.	.	.	8a\	-mu-	.	8cc\	-mu-
.	.	.	4r	.	4r	.	4b\	-ie	.	4dd\	-ie
!	!	!	!	!	!	!	!LO:LB:g=original	!	!	!	!
=120	=120	=120	=120	=120	=120	=120	=120	=120	=120	=120	=120
4G\	.	.	8dd\L	.	8ff\L	.	8dd\L	ſług	.	8ff\L	ſług
.	.	.	8b\J	.	8dd\	.	8b\J	.	.	8dd\J	.
4GG/	.	.	8e/L	.	8cc\	.	8ee\L	no-	.	8cc\L	no-
.	.	.	8d/J	.	8b\J	.	8dd\J	.	.	8b\J	.
=121	=121	=121	=121	=121	=121	=121	=121	=121	=121	=121	=121
4C/	.	.	4e/	.	4cc\	.	4ee\	-wych	.	4cc\	-wych
!	!	!	!LO:TX:a:t=15	!	!LO:TX:a:t=15	!	!	!	!	!	!
4r	.	.	4r	.	4r	.	4r	.	.	4r	.
!LO:TX:b:i:t=Da Capo ad ſignŭ	!	!	!LO:TX:b:i:t=Da Capo ad ſign	!	!LO:TX:b:i:t=Da Capo.\nad ſign	!	!	!	!	!	!

=122	=122	=122	=122	=122	=122	=122	=122	=122	=122	=122	=122
!	!	!	!	!	!	!	!LO:N:vis=00	!	!	!LO:N:vis=00	!
2ryy	.	.	2ryy	.	2ryy	.	0r	.	.	0r	.
=123	=123	=123	=123	=123	=123	=123	=123	=123	=123	=123	=123
2ryy	.	.	2ryy	.	2ryy	.	.	.	.	.	.
=124	=124	=124	=124	=124	=124	=124	=124	=124	=124	=124	=124
2ryy	.	.	2ryy	.	2ryy	.	.	.	.	.	.
=125	=125	=125	=125	=125	=125	=125	=125	=125	=125	=125	=125
2ryy	.	.	2ryy	.	2ryy	.	.	.	.	.	.
=126	=126	=126	=126	=126	=126	=126	=126	=126	=126	=126	=126
!	!	!	!	!	!	!	!LO:N:vis=00	!	!	!LO:N:vis=00	!
2ryy	.	.	2ryy	.	2ryy	.	0r	.	.	0r	.
=127	=127	=127	=127	=127	=127	=127	=127	=127	=127	=127	=127
2ryy	.	.	2ryy	.	2ryy	.	.	.	.	.	.
=128	=128	=128	=128	=128	=128	=128	=128	=128	=128	=128	=128
2ryy	.	.	2ryy	.	2ryy	.	.	.	.	.	.
=129	=129	=129	=129	=129	=129	=129	=129	=129	=129	=129	=129
2ryy	.	.	2ryy	.	2ryy	.	.	.	.	.	.
=130	=130	=130	=130	=130	=130	=130	=130	=130	=130	=130	=130
!	!	!	!	!	!	!	!LO:N:vis=00	!	!	!LO:N:vis=00	!
2ryy	.	.	2ryy	.	2ryy	.	0r	.	.	0r	.
=131	=131	=131	=131	=131	=131	=131	=131	=131	=131	=131	=131
2ryy	.	.	2ryy	.	2ryy	.	.	.	.	.	.
=132	=132	=132	=132	=132	=132	=132	=132	=132	=132	=132	=132
2ryy	.	.	2ryy	.	2ryy	.	.	.	.	.	.
=133	=133	=133	=133	=133	=133	=133	=133	=133	=133	=133	=133
2ryy	.	.	2ryy	.	2ryy	.	.	.	.	.	.
=134	=134	=134	=134	=134	=134	=134	=134	=134	=134	=134	=134
!	!	!	!	!	!	!	!LO:N:vis=00	!	!	!LO:N:vis=00	!
2ryy	.	.	2ryy	.	2ryy	.	0r	.	.	0r	.
=135	=135	=135	=135	=135	=135	=135	=135	=135	=135	=135	=135
2ryy	.	.	2ryy	.	2ryy	.	.	.	.	.	.
=136	=136	=136	=136	=136	=136	=136	=136	=136	=136	=136	=136
2ryy	.	.	2ryy	.	2ryy	.	.	.	.	.	.
=137	=137	=137	=137	=137	=137	=137	=137	=137	=137	=137	=137
2ryy	.	.	2ryy	.	2ryy	.	.	.	.	.	.
==	==	==	==	==	==	==	==	==	==	==	==
*-	*-	*-	*-	*-	*-	*-	*-	*-	*-	*-	*-
!!!system-decoration: [g1][g2]g3
!!!RDF**kern: > = above
!!!RDF**kern: < = below
!!!RDF**kern: | = vertical stroke
!!!ENC: Andrzej Kubiczek
!!!END: 2021-01-06
!!!YEC: Copyright 2022 Narodowy Instytut Fryderyka Chopina (https://polishscores.org)
!!!YEM: Licence CC BY 4.0 (https://creativecommons.org/licenses/by/4.0)
